remix/Business/pie-chart-box-fill.svg

<svg viewBox="0 0 24 24" fill="currentColor" xmlns="http://www.w3.org/2000/svg"><path d="M3 3H21C21.5523 3 22 3.44772 22 4V20C22 20.5523 21.5523 21 21 21H3C2.44772 21 2 20.5523 2 20V4C2 3.44772 2.44772 3 3 3ZM16.9 13H11V7.10002C8.71776 7.56329 7 9.58104 7 12C7 14.7614 9.23858 17 12 17C14.419 17 16.4367 15.2822 16.9 13ZM16.9 11C16.5023 9.04087 14.9591 7.4977 13 7.10002V11H16.9Z"/></svg>

<svg viewBox="0 0 24 24" xmlns="http://www.w3.org/2000/svg"><path fill="none" d="M0 0h24v24H0Z"/><path d="M3 3h18v0c.55 0 1 .44 1 1v16 0c0 .55-.45 1-1 1H3v0c-.56 0-1-.45-1-1V4v0c0-.56.44-1 1-1Zm13.9 10H11V7.1l-.001 0c-2.71.56-4.45 3.2-3.89 5.91 .47 2.31 2.51 3.98 4.88 3.98h0c2.37-.01 4.42-1.68 4.9-4Zm0-2v0c-.41-1.97-1.94-3.5-3.9-3.9V11h3.9Z"/></svg>
